X:1
T:1762 leto
Z:Tous aux Balkans !
F:http://www.tousauxbalkans.net/1762_leto
O:Mac\'edoine
Q:1/4=112
M:3/4
L:1/8
K:Fm
P:A
"Fm"F2 c2 c2 | cd/c/ Bc AB | "C7"GA B=A BA | Bc/B/ AB GA |
"Fm"FG AG AB | "Db"A/G/F =EF D/C/B, | "C7"CD =EF GA | "Fm"F6 | z6 ||
P:B
|: "Fm"A4 A2 | A4 A2 | c4 c2 | B4 !breath!A2 | "C"G4 G2 | G4 G2 | B4 B2 | A4 !breath!G2 |
"Fm"F4 F2 | F4 C2 | F2 G2 A2 | "C"G4 !breath!F2 | =E4 D2 | C2 D2 =E2 | "Fm"F6 |
F=E FG AB | "Ab"c6- | c2 B2 c2 | "C"d2 c2 !breath!B2 | A4 G2 | "Fm"F6 | z6 :|





